X:18
T:Old Joe Clark
S:Sarah Comer
M:C
L:1/4
G:Key: A Mixolydian
Z:abc-transcription Josh Larios <hades@elsewhere.org>, 2017.02.14
K:A Mix
[P:A]|: "A"efgf | edc2 | efgf | "G"e2e2 |
|"A"efgf | edc2 | Ac"E"BB | "A"A2A2 :|
[P:B]|: "A"A2A2 | edc2 | AAcA | "G"B2B2 |
| "A"A2A c/d/ | edc2 | Ac"E"BB | "A"A2A2 :|

